assets/img/icons_20_ic_document_black.svg

<?xml version="1.0" encoding="UTF-8"?>
<svg width="20px" height="20px" viewBox="0 0 20 20" version="1.1" xmlns="http://www.w3.org/2000/svg" xmlns:xlink="http://www.w3.org/1999/xlink">
    <title>94C91F92-DCCE-40C8-A15D-ABF9D48C5F32</title>
    <g id="학습창" stroke="none" stroke-width="1" fill="none" fill-rule="evenodd">
        <g id="Cube_Case" transform="translate(-80.000000, -160.000000)">
            <g id="Icons-/-20-/-ic_document_black" transform="translate(80.000000, 160.000000)">
                <path d="M0,0 L20,0 L20,20 L0,20 L0,0 Z" id="area"></path>
                <path d="M6.5,14.5 L13.5,14.5 C13.7761421,14.5 14,14.7238579 14,15 C14,15.2761421 13.7761421,15.5 13.5,15.5 L6.5,15.5 C6.22385764,15.5 6,15.2761421 6,15 C6,14.7238579 6.22385764,14.5 6.5,14.5 Z M6,12 C6,12.2761421 6.22385764,12.5 6.5,12.5 L13.5,12.5 C13.7761421,12.5 14,12.2761421 14,12 C14,11.7238579 13.7761421,11.5 13.5,11.5 L6.5,11.5 C6.22385764,11.5 6,11.7238579 6,12 Z M16.5,19 L3.5,19 C2.94771522,19 2.5,18.5522842 2.5,18 L2.5,2 C2.5,1.44771576 2.94771528,1 3.5,1 L10.666667,1 L10.7272053,1.05448484 C10.805253,1.09436778 10.871439,1.15415721 10.9190645,1.22715779 L17.5,7.1500001 L17.5,18 C17.5,18.5522842 17.0522842,19 16.5,19 Z M11,2.64536226 L15.8384867,7 L11,7 L11,2.64536226 Z M10,7.5 L10,2 L3.5,2 L3.5,18 L16.5,18 L16.5,8 L10.5,8 C10.2238574,8 10,7.7761426 10,7.5 Z" id="Union" fill="#000000"></path>
            </g>
        </g>
    </g>
</svg>

<svg width="20" height="20" viewBox="0 0 20 20" xmlns="http://www.w3.org/2000/svg">
    <g fill="none" fill-rule="evenodd">
        <path d="M0 0h20v20H0V0z"/>
        <path d="M6.5 14.5h7a.5.5 0 0 1 0 1h-7a.5.5 0 0 1 0-1zM6 12a.5.5 0 0 0 .5.5h7a.5.5 0 0 0 0-1h-7a.5.5 0 0 0-.5.5zm10.5 7h-13a1 1 0 0 1-1-1V2a1 1 0 0 1 1-1h7.167l.06.054c.078.04.144.1.192.173L17.5 7.15V18a1 1 0 0 1-1 1zM11 2.645 15.838 7H11V2.645zM10 7.5V2H3.5v16h13V8h-6a.5.5 0 0 1-.5-.5z" fill="#000"/>
    </g>
</svg>
